Yaru++/actions/16/transform-scale-vertical.svg

<svg viewBox="0 0 24 24" xmlns="http://www.w3.org/2000/svg">
  <path d="m12 4-2 2h4zm-5 3v10h10v-10zm1 1h8v8h-8zm2 10 2 2 2-2z" fill="#808080"/>
</svg>

<svg xmlns="http://www.w3.org/2000/svg" version="1.1" viewBox="0 0 24 24">
 <defs>
  <style id="current-color-scheme" type="text/css">
   .ColorScheme-Text { color:#808080; }
  </style>
 </defs>
 <path style="fill:currentColor" class="ColorScheme-Text" d="M 12 4 L 10 6 L 14 6 L 12 4 z M 7 7 L 7 17 L 17 17 L 17 7 L 7 7 z M 8 8 L 16 8 L 16 16 L 8 16 L 8 8 z M 10 18 L 12 20 L 14 18 L 10 18 z"/>
</svg>
